X: 022
T: Miss Butts favorite
B: 204 Favourite Country Dances
N: Published by Straight & Skillern, London ca.1775
F: http://imslp.org/wiki/204_Favourite_Country_Dances_(Various) p.11 #22
Z: 2014 John Chambers <jc:trillian.mit.edu>
M: 6/8
L: 1/8
K: G
%  - - - - - - - - - - - - - - - - - - - - - - - - -
|:\
GBd  dBG | ege  dBG |\
E>FE EcA | FDF  G3 :|\
|:\
dfa  afd | gbg  fed |
efg  gfe | d>ed dBG |\
GBd  dBG | ege  dBG |\
E>FE EcA | FDF  G3 :|
%  - - - - - - - - - - - - - - - - - - - - - - - - -
%%begintext align
%% Hands across back again cross over turn
%% your Part: right hands & left
%%endtext

%%sep 1 1 500
%%sep 1 1 500
